!!!!SEGMENT:21Oimatsu_c.krn
!!!OTL: 老松
!!!OPR:Eiga Banso Kyokusyu,jidai-geki,zenpen
!!!YOY:1929
!!!ONB:LoveScene,Garden
**kern
*clefG2
*k[]
*C:
*M2/4
=1
!LO:TX:a:B:t=Moderato
4B
4a
=2
4a
4b
=3
8r
8dd
4ee
=4
4ff#X
4a
=5
2b
=6
4r
4a
=7
2f
=8
4a
4b
=9
4e
4d
=10
4a
4f
=11
2e
=12
(8qd/
2B)
=13
2c
=14
4r
4e
=15
2f#X
=16
4B
4f#X
=17
2f#X
=18
2r
=19
2fn
=20
2r
=21
4e
4a
=22
4b
4dd
=23
4e
4d
=24
2e
=25
2B
=26
4r
4aa
=27
2ff
=28
4ff
4ee
=29
4dd
4ff
=30
8eeL
8ee
8.ee
16ccJk
=31
2b
=32
4cc
4a
=33
2b
=34
4r
4ee
=35
4ff#X
4ff#
=36
4ff#X
4aa
=37
8bbL
8bb
8bb
8bbJ
=38
4bb
4r
=39
8bbL
8bb
8aa
8aaJ
=40
8ff#XL
8ff#
8ee
8ccJ
=41
8bL
(8a
8b)
8aJ
=42
4B
8eeL
8ccJ
=43
8bL
8aJ
4f
=44
4e
4r
=45
4f
4e
=46
2f
=47
4r
4f
=48
2f
=49
4e
4a
=50
4b
4b
=51
4b
4a
=52
2B
=53
4r
4cc
=54
4cc
4cc
=55
4b
4a
=56
4B
8r
8cc
=57
2cc
=58
4b
4r
=59
4r
4dd
=60
8ddL
(8dd
8ee)
8ddJ
=61
8eeL
8b
8b
8aJ
=62
4b
4aa
=63
4bb
4ff
=64
2ee
=65
4r
4ee
=66
2ee
=67
4r
4ee
=68
2ee
=69
4r
4b-X
=70
2b-X
=71
4a
4f
=72
2f
=73
4r
4a
=74
2bn
=75
4r
8eeL
8bJ
=76
4b
4ff
=77
8ee
4ee
8ee
=78
4b
4a
=79
4r
8bL
8bJ
=80
4b
4b
=81
2b
=82
4.B
8e
=83
2f#X
=84
4r
4f#X
=85
2f#X
=86
4r
4g
=87
2g
=88
4f#X
4e
=89
2f#X
=90
4b
4g
=91
2f#X
=92
4f#X
4c
=93
4B
4r
=94
4r
4ccc
=95
4bb
4ff
=96
8.eeL
16cck
8b
8aJ
=97
4b
4dd
=98
2e
==
*-
!!!ENC: Yukiko Yoden
!!!END: 2023/06/11
